X:102
T:Feathers. JJo8.102, The
B:J.Johnson Choice Collection Vol 8 1758
Z:vmp.Simon Wilson 2013 www.village-music-project.org.uk
M:2/4
L:1/8
Q:1/2=90
K:A
|:cA2B/c/|d2cB|Acef|dBTB2|Acef|d2cB|e2Bd|cAA2:|
|:B2GE|c2AF|BGEc|dBTB2|ecAf|d2cB|e2Bd|cAA2:|
|:a2b/a/g/f/|ge2f|(d2c)a|(B2A)c|df2e/d/|cBAa|edcB|A2A2:|
